X:2
T:GB/7a/2A Jolly Fellows that Follow the Plough-0
%%VWML:GB-7a-2A-0
F:http://www.vwml.org/record/GB/7a/2A
T:Version 2 of 2
C:Mr. Richard Newton P:Noted by FW J(ekyll)
C:Transcribed by Simon Furey and Lewis Jones
L:1/4
M:3/4
I:linebreak $
K:F
F | A A A | c B G | G F F | F2 A | B A B | c f f | _e c d | c2 c |$ c A c | d/e/ f d | c B c | F G A | B A B | c B G | A F F | F2 |]

